**harmony	**harte	**kern	**silbe	**rhyme	**phrase
*M4/4	*M4/4	*ICvox	*	*	*
*	*	*VRlead*VRresponse	*	*	*
*	*	*Hstimme	*	*	*
*d:	*d:	*d:	*	*	*d:
*	*	*M4/4	*	*	*
*	*	*clefG2	*	*	*
1r;	1r	r;	.	.	.
=1	=1	=1	=1	=1	=1
*>Letter>A	*>Letter>A	*>Letter>A	*>Letter>A	*>Letter>A	*>Letter>A
*>Label>Intro	*>Label>Intro	*>Label>Intro	*>Label>Intro	*>Label>Intro	*>Label>Intro
1N	N	1r	.	.	newline
=2	=2	=2	=2	=2	=2
1N	N	2r	.	.	.
.	.	4r	.	.	.
.	.	8.r	.	.	.
.	.	16~d	Now	.	.
=3	=3	=3	=3	=3	=3
*>Letter>B2	*>Letter>B2	*>Letter>B2	*>Letter>B2	*>Letter>B2	*>Letter>B2
*>Label>Verse	*>Label>Verse	*>Label>Verse	*>Label>Verse	*>Label>Verse	*>Label>Verse
1N	N	8a	ev-	.	.
.	.	16g	-ery-	.	.
.	.	[16g	-bo-	.	.
.	.	16g]	_	.	.
.	.	8a	-dy	.	.
.	.	16r	.	.	.
.	.	2r	.	.	.
=4	=4	=4	=4	=4	=4
1N	N	8f	have	.	.
.	.	16d	you	.	.
.	.	16d	heard?.	A	.
.	.	16c	_	.	.
.	.	16A	_	.	.
.	.	8r	.	.	.
.	.	4.r	.	.	.
.	.	16c	If	.	.
.	.	16d	you're	.	.
=5	=5	=5	=5	=5	=5
1N	N	8a	in	.	.
.	.	16g	the	.	.
.	.	16g	game:	.	.
.	.	16f	_	.	.
.	.	8.d	_	.	.
.	.	4.r	.	.	.
.	.	16A	then	.	.
.	.	16c	the	.	.
=6	=6	=6	=6	=6	=6
1N	N	8d	stroke's	.	.
.	.	16d	the	.	.
.	.	8.d	word.	A	.
.	.	8r	.	.	.
.	.	2r	.	.	.
=7	=7	=7	=7	=7	=7
1Gm	G:5	4r	.	.	newline
.	.	8r	.	.	.
.	.	8f	Don't	.	.
.	.	8g	take	.	.
.	.	16f	no	.	.
.	.	16a	rh-	(B	.
.	.	4f	-ythm.	b)	.
=8	=8	=8	=8	=8	=8
1Dm	D:5	4.r	.	.	.
.	.	8d	Don't	.	.
.	.	8f	take	.	.
.	.	8d	no	.	.
.	.	16d	style.	C	.
.	.	16c	_	.	.
.	.	16A	_	.	.
.	.	16r	.	.	.
=9	=9	=9	=9	=9	=9
1Gm	G:5	4r	.	.	.
.	.	8r	.	.	.
.	.	16g	Got-	.	.
.	.	16f	-ta	.	.
.	.	8g	thirst	.	.
.	.	16f	for	.	.
.	.	16a	kil-	(B	.
.	.	16f	-lin'.	b)	.
.	.	8.g	_	.	.
=10	=10	=10	=10	=10	=10
4Am	A:5	4r	.	.	.
4Gm	G:1	8cc	Grab	.	.
.	.	8g	your	.	.
4F#m	F#:1	4g	vile	C	.
4Em	E:1	4a	and.	.	.
=11	=11	=11	=11	=11	=11
*>Letter>C	*>Letter>C	*>Letter>C	*>Letter>C	*>Letter>C	*>Letter>C
*>Label>Trans	*>Label>Trans	*>Label>Trans	*>Label>Trans	*>Label>Trans	*>Label>Trans
4Dm	D:min	2r	.	.	newline
4CM	C:maj/2	.	.	.	.
4Dm	D:min	4r	.	.	.
4CM	C:maj/2	4~a	Woo!.	.	.
=12	=12	=12	=12	=12	=12
4Dm	D:min	1r	.	.	.
4CM	C:maj/2	.	.	.	.
4Gm	G:5/4	.	.	.	.
4Gm	G:5	.	.	.	.
=13	=13	=13	=13	=13	=13
4Dm	D:min	1r	.	.	.
4CM	C:maj/2	.	.	.	.
4Dm	D:min	.	.	.	.
4CM	C:maj/2	.	.	.	.
=14	=14	=14	=14	=14	=14
4Dm	D:min	2r	.	.	.
4CM	C:maj/2	.	.	.	.
4Gm	G:5	4.r	.	.	.
4FM	F:5	.	.	.	.
.	.	16c	Put	.	.
.	.	16c	your	.	.
=15	=15	=15	=15	=15	=15
*>Letter>B	*>Letter>B	*>Letter>B	*>Letter>B	*>Letter>B	*>Letter>B
*>Label>Verse	*>Label>Verse	*>Label>Verse	*>Label>Verse	*>Label>Verse	*>Label>Verse
1Dm	D:min	8d	right	.	newline
.	.	8d	hand	.	.
.	.	4c	out.	D	.
.	.	4.r	.	.	.
.	.	16d	Give	.	.
.	.	16d	a	.	.
=16	=16	=16	=16	=16	=16
2Dm	D:min	8f	firm	.	.
.	.	8d	hand-	.	.
.	.	8d	-shake.	E	.
.	.	8r	.	.	.
4Gm	G:5/4	2r	.	.	.
4Gm	G:5	.	.	.	.
=17	=17	=17	=17	=17	=17
1Dm	D:min	8a	Talk	.	.
.	.	16g	to	.	.
.	.	16g	me	.	.
.	.	16f	_	.	.
.	.	8.d	_	.	.
.	.	4r	.	.	.
.	.	16r	.	.	.
.	.	16c	a-	.	.
.	.	16c	-bout	D	.
.	.	16c	that	.	.
=18	=18	=18	=18	=18	=18
1Dm	D:min	8d	one	.	.
.	.	8d	big	.	.
.	.	16c	break.	E	.
.	.	16F	_	.	.
.	.	8r	.	.	.
.	.	2r	.	.	.
=19	=19	=19	=19	=19	=19
1Gm	G:5	4r	.	.	newline
.	.	8r	.	.	.
.	.	16g	Spread	.	.
.	.	16f	the	.	.
.	.	8g	ear	.	.
.	.	16f	po-	.	.
.	.	[16a	-llu-	(F	.
.	.	16a]	_	.	.
.	.	[8.f	-tion	f)	.
=20	=20	=20	=20	=20	=20
1Dm	D:5	16f]	_	.	.
.	.	8.r	.	.	.
.	.	8r	.	.	.
.	.	8d	both	.	.
.	.	8f	far	.	.
.	.	16f	and	.	.
.	.	16d	wide.	G	.
.	.	16c	_	.	.
.	.	16A	_	.	.
.	.	8r	.	.	.
=21	=21	=21	=21	=21	=21
1Gm	G:5	4r	.	.	.
.	.	8r	.	.	.
.	.	16g	Keep	.	.
.	.	16f	your	.	.
.	.	8g	con-	.	.
.	.	16f	-tri-	.	.
.	.	16a	-bu-	(F	.
.	.	16f	-tions	f)	.
.	.	8.g	_	.	.
=22	=22	=22	=22	=22	=22
4Am	A:5	4r	.	.	.
4Gm	G:1	8cc	by	.	.
.	.	8g	your	.	.
4F#m	F#:1	4g	side,	G	.
4Em	E:1	4f	and	.	.
=23	=23	=23	=23	=23	=23
*>Letter>D	*>Letter>D	*>Letter>D	*>Letter>D	*>Letter>D	*>Letter>D
*>Label>Chorus	*>Label>Chorus	*>Label>Chorus	*>Label>Chorus	*>Label>Chorus	*>Label>Chorus
4CM	C:maj	4c	Stroke	.	newline
2.Dm	D:min	4d	me.	.	.
.	.	8f	Stroke	.	.
.	.	8d	me.	.	.
.	.	8r	.	.	.
.	.	16r	.	.	.
.	.	16g#	Could	.	.
=24	=24	=24	=24	=24	=24
2Dm	D:min	8a	_	.	.
.	.	16g	be	.	.
.	.	16f	a	.	.
.	.	16g	win-	(H	.
.	.	16f	-ner	h)	.
.	.	16d	boy.	.	.
.	.	16d	you	.	.
4Gm	G:5	8f	move	.	.
.	.	16d	quite	.	.
.	.	16c	a	.	.
4FM	F:5	16d	well.	.	.
.	.	16c	_	.	.
.	.	16A	_	.	.
.	.	16r	.	.	.
=25	=25	=25	=25	=25	=25
4CM	C:maj	4c	Stroke	.	.
2.Dm	D:min	4d	me.	.	.
.	.	8f	Stroke	.	.
.	.	8d	me.	.	.
.	.	4r	.	.	.
=26	=26	=26	=26	=26	=26
2Dm	D:min	8~d	Stroke!.	.	.
.	.	8r	.	.	.
.	.	4r	.	.	.
4Gm	G:5	2r	.	.	.
4FM	F:5	.	.	.	.
=27	=27	=27	=27	=27	=27
4CM	C:maj	4c	Stroke	.	newline
2.Dm	D:min	4d	me.	.	.
.	.	8f	Stroke	.	.
.	.	[8d	me.	.	.
.	.	16d]	_	.	.
.	.	8.r	.	.	.
=28	=28	=28	=28	=28	=28
2Dm	D:min	16r	.	.	.
.	.	16a	You	.	.
.	.	16g	got	.	.
.	.	16f	your	.	.
.	.	16g	num-	(H	.
.	.	16f	-ber	h)	.
.	.	16d	down.	D	.
.	.	[16c	_	.	.
4Gm	G:5	8c]	_	.	.
.	.	8r	.	.	.
4FM	F:5	4r	.	.	.
=29	=29	=29	=29	=29	=29
4CM	C:maj	4c	Stroke	.	.
2.Dm	D:min	4d	me.	.	.
.	.	8f	Stroke	.	.
.	.	8d	me.	.	.
.	.	8r	.	.	.
.	.	16r	.	.	.
.	.	16g#	Say	.	.
=30	=30	=30	=30	=30	=30
1Dm	D:min	8a	_	.	.
.	.	16g	you're	.	.
.	.	16f	a	.	.
.	.	16g	win-	(H	.
.	.	16f	-ner;	h)	.
.	.	16d	but	.	.
.	.	[16f	man	.	.
.	.	16f]	_	.	.
.	.	16d	you're	.	.
.	.	16c	just	.	.
.	.	16A	a	.	.
.	.	16c	sin-	(H	.
.	.	16A	-ner	h)	.
.	.	8F	now.	D	.
=31	=31	=31	=31	=31	=31
*>Letter>C	*>Letter>C	*>Letter>C	*>Letter>C	*>Letter>C	*>Letter>C
*>Label>Trans	*>Label>Trans	*>Label>Trans	*>Label>Trans	*>Label>Trans	*>Label>Trans
4Dm	D:min	1r	.	.	newline
4CM	C:maj/2	.	.	.	.
4Dm	D:min	.	.	.	.
4CM	C:maj/2	.	.	.	.
=32	=32	=32	=32	=32	=32
4Dm	D:min	1r	.	.	.
4CM	C:maj/2	.	.	.	.
4Gm	G:5/4	.	.	.	.
4Gm	G:5	.	.	.	.
=33	=33	=33	=33	=33	=33
4Dm	D:min	1r	.	.	.
4CM	C:maj/2	.	.	.	.
4Dm	D:min	.	.	.	.
4CM	C:maj/2	.	.	.	.
=34	=34	=34	=34	=34	=34
4Dm	D:min	2r	.	.	.
4CM	C:maj/2	.	.	.	.
4Gm	G:5	4.r	.	.	.
4FM	F:5	.	.	.	.
.	.	16c	Put	.	.
.	.	16c	your	.	.
=35	=35	=35	=35	=35	=35
*>Letter>B	*>Letter>B	*>Letter>B	*>Letter>B	*>Letter>B	*>Letter>B
*>Label>Verse	*>Label>Verse	*>Label>Verse	*>Label>Verse	*>Label>Verse	*>Label>Verse
1Dm	D:min	8c	left	.	newline
.	.	16c	foot	.	.
.	.	[16c	out.	D	.
.	.	8c]	_	.	.
.	.	8r	.	.	.
.	.	4r	.	.	.
.	.	8r	.	.	.
.	.	16c	Keep	.	.
.	.	16d	it	.	.
=36	=36	=36	=36	=36	=36
2Dm	D:min	8a	all	.	.
.	.	16g	in	.	.
.	.	16g	place.	I	.
.	.	8a	_	.	.
.	.	8r	.	.	.
4Gm	G:5/4	2r	.	.	.
4Gm	G:5	.	.	.	.
=37	=37	=37	=37	=37	=37
1Dm	D:min	8a	Work	.	.
.	.	16g	your	.	.
.	.	16g	way	.	.
.	.	16f	_	.	.
.	.	8.d	_	.	.
.	.	4.r	.	.	.
.	.	8c	right	.	.
=38	=38	=38	=38	=38	=38
1Dm	D:min	16d	in-	.	.
.	.	16d	-to	.	.
.	.	8d	my	.	.
.	.	16c	face.	I	.
.	.	16F	_	.	.
.	.	8r	.	.	.
.	.	2r	.	.	.
=39	=39	=39	=39	=39	=39
1Gm	G:5	4r	.	.	newline
.	.	8r	.	.	.
.	.	16g	First	.	.
.	.	16f	you	.	.
.	.	8g	try	.	.
.	.	16f	to	.	.
.	.	[16a	bed	J	.
.	.	16a]	_	.	.
.	.	8.f	me.	.	.
=40	=40	=40	=40	=40	=40
1Dm	D:5	4r	.	.	.
.	.	16r	.	.	.
.	.	16c	You	.	.
.	.	16c	make	.	.
.	.	16c	my	.	.
.	.	8c	back-	.	.
.	.	8d	-bone	.	.
.	.	4f	slide;	G	.
=41	=41	=41	=41	=41	=41
1Gm	G:5	4r	.	.	.
.	.	16r	.	.	.
.	.	16f	but	.	.
.	.	16g	when	.	.
.	.	16f	you	.	.
.	.	8g	find	.	.
.	.	16f	you	.	.
.	.	8a	bled	J	.
.	.	16f	me:	.	.
.	.	8g	_	.	.
=42	=42	=42	=42	=42	=42
4Am	A:5	4r	.	.	.
4Gm	G:1	16cc	slip	.	.
.	.	8.g	on	.	.
4F#m	F#:1	4g	by.	.	.
4Em	E:1	16~a	Keep	.	.
.	.	8.~f	on!.	.	.
=43	=43	=43	=43	=43	=43
*>Letter>D	*>Letter>D	*>Letter>D	*>Letter>D	*>Letter>D	*>Letter>D
*>Label>Chorus	*>Label>Chorus	*>Label>Chorus	*>Label>Chorus	*>Label>Chorus	*>Label>Chorus
4CM	C:maj	4c	Stroke	.	newline
2.Dm	D:min	4d	me.	.	.
.	.	8f	Stroke	.	.
.	.	8d	me.	.	.
.	.	8r	.	.	.
.	.	16r	.	.	.
.	.	16g#	Give	.	.
=44	=44	=44	=44	=44	=44
2Dm	D:min	8a	_	.	.
.	.	16g	me	.	.
.	.	16f	the	.	.
.	.	16g	bus-	.	.
.	.	16f	-i-	.	.
.	.	16d	-ness	.	.
.	.	16d	all	.	.
4Gm	G:5	8f	_	.	.
.	.	8d	night	.	.
4FM	F:5	16d	long.	.	.
.	.	16c	_	.	.
.	.	16A	_	.	.
.	.	16r	.	.	.
=45	=45	=45	=45	=45	=45
4CM	C:maj	4c	Stroke	.	.
2.Dm	D:min	4d	me.	.	.
.	.	8f	Stroke	.	.
.	.	8d	me.	.	.
.	.	4r	.	.	.
=46	=46	=46	=46	=46	=46
2Dm	D:min	8~d	Stroke!.	.	.
.	.	8r	.	.	.
.	.	4r	.	.	.
4Gm	G:5	2r	.	.	.
4FM	F:5	.	.	.	.
=47	=47	=47	=47	=47	=47
4CM	C:maj	4c	Stroke	.	newline
2.Dm	D:min	4d	me.	.	.
.	.	8f	Stroke	.	.
.	.	8d	me.	.	.
.	.	4r	.	.	.
=48	=48	=48	=48	=48	=48
2Dm	D:min	16r	.	.	.
.	.	16a	You're	.	.
.	.	16g	so	.	.
.	.	16f	to-	.	.
.	.	16g	-ge-	.	.
.	.	16f	-ther	.	.
.	.	16d	boy.	.	.
.	.	[16c	_	.	.
4Gm	G:5	16c]	_	.	.
.	.	16r	.	.	.
.	.	8r	.	.	.
4FM	F:5	4r	.	.	.
=49	=49	=49	=49	=49	=49
4CM	C:maj	4c	Stroke	.	.
2.Dm	D:min	4d	me.	.	.
.	.	8f	Stroke	.	.
.	.	8d	me.	.	.
.	.	8r	.	.	.
.	.	16r	.	.	.
.	.	16g#	Say	.	.
=50	=50	=50	=50	=50	=50
1Dm	D:min	8a	_	.	.
.	.	16g	you're	.	.
.	.	16f	a	.	.
.	.	16g	win-	(H	.
.	.	16f	-ner;	h)	.
.	.	16d	but	.	.
.	.	[16f	man	.	.
.	.	16f]	_	.	.
.	.	16d	you're	.	.
.	.	16c	just	.	.
.	.	16A	a	.	.
.	.	16c	sin-	(H	.
.	.	16A	-ner	h)	.
.	.	[8F	now.	D	.
=51	=51	=51	=51	=51	=51
*>Letter>A	*>Letter>A	*>Letter>A	*>Letter>A	*>Letter>A	*>Letter>A
*>Label>Interlude	*>Label>Interlude	*>Label>Interlude	*>Label>Interlude	*>Label>Interlude	*>Label>Interlude
2N	N	16F]	_	.	newline
.	.	16r	.	.	.
.	.	8r	.	.	.
.	.	4r	.	.	.
2N	N	8~d	Stroke!.	.	.
.	.	8r	.	.	.
.	.	4r	.	.	.
=52	=52	=52	=52	=52	=52
2N	N	8~d	Stroke!.	.	.
.	.	8r	.	.	.
.	.	4r	.	.	.
2N	N	8~d	Stroke!.	.	.
.	.	8r	.	.	.
.	.	4r	.	.	.
=53	=53	=53	=53	=53	=53
2N	N	8~d	Stroke!.	.	.
.	.	8r	.	.	.
.	.	4r	.	.	.
2N	N	8~d	Stroke!.	.	.
.	.	8r	.	.	.
.	.	4r	.	.	.
=54	=54	=54	=54	=54	=54
2N	N	8~d	Stroke!.	.	.
.	.	8r	.	.	.
.	.	4r	.	.	.
2N	N	8~d	Stroke!.	.	.
.	.	8r	.	.	.
.	.	4r	.	.	.
=55	=55	=55	=55	=55	=55
*>Letter>C	*>Letter>C	*>Letter>C	*>Letter>C	*>Letter>C	*>Letter>C
*>Label>Trans	*>Label>Trans	*>Label>Trans	*>Label>Trans	*>Label>Trans	*>Label>Trans
4Dm	D:min	1r	.	.	newline
4CM	C:maj/2	.	.	.	.
4Dm	D:min	.	.	.	.
4CM	C:maj/2	.	.	.	.
=56	=56	=56	=56	=56	=56
4Dm	D:min	1r	.	.	.
4CM	C:maj/2	.	.	.	.
4Gm	G:5/4	.	.	.	.
4Gm	G:5	.	.	.	.
=57	=57	=57	=57	=57	=57
4Dm	D:min	1r	.	.	.
4CM	C:maj/2	.	.	.	.
4Dm	D:min	.	.	.	.
4CM	C:maj/2	.	.	.	.
=58	=58	=58	=58	=58	=58
4Dm	D:min	2r	.	.	.
4CM	C:maj/2	.	.	.	.
4Gm	G:5	4.r	.	.	.
4FM	F:5	.	.	.	.
.	.	16a	Bet-	.	.
.	.	16g#	-ter	.	.
=59	=59	=59	=59	=59	=59
*>Letter>B	*>Letter>B	*>Letter>B	*>Letter>B	*>Letter>B	*>Letter>B
*>Label>Verse	*>Label>Verse	*>Label>Verse	*>Label>Verse	*>Label>Verse	*>Label>Verse
1Dm	D:min	16a	lis-	.	newline
.	.	16a	-ten	.	.
.	.	8g#	now.	D	.
.	.	8a	_	.	.
.	.	8r	.	.	.
.	.	4r	.	.	.
.	.	8r	.	.	.
.	.	16c	Said	.	.
.	.	16c	it	.	.
=60	=60	=60	=60	=60	=60
2Dm	D:min	8d	ain't	.	.
.	.	8f	no	.	.
.	.	16d	joke.	K	.
.	.	16c	_	.	.
.	.	16A	_	.	.
.	.	16r	.	.	.
4Gm	G:5/4	4r	.	.	.
4Gm	G:5	16r	.	.	.
.	.	16c	You	.	.
.	.	16c	let	.	.
.	.	16c	you're	.	.
=61	=61	=61	=61	=61	=61
1Dm	D:min	8a	cons-	.	.
.	.	16g	-ience	.	.
.	.	16g	fail	.	.
.	.	16g#	_	.	.
.	.	16a	ya.	.	.
.	.	8r	.	.	.
.	.	4r	.	.	.
.	.	8r	.	.	.
.	.	8c	Just	.	.
=62	=62	=62	=62	=62	=62
1Dm	D:min	8d	do	.	.
.	.	8d	the	.	.
.	.	16c	stroke.	K	.
.	.	16F	_	.	.
.	.	8r	.	.	.
.	.	2r	.	.	.
=63	=63	=63	=63	=63	=63
1Gm	G:5	4r	.	.	newline
.	.	8r	.	.	.
.	.	16g	Don-	.	.
.	.	16f	-'tcha	.	.
.	.	8g	take	.	.
.	.	16f	no	.	.
.	.	[16a	chanc-	(L	.
.	.	16a]	_	.	.
.	.	8.f	-es.	l)	.
=64	=64	=64	=64	=64	=64
1Dm	D:5	4r	.	.	.
.	.	8r	.	.	.
.	.	16c	Keep	.	.
.	.	16c	your	.	.
.	.	8c	eye	.	.
.	.	8d	on	.	.
.	.	16d	top.	M	.
.	.	16r	.	.	.
.	.	8r	.	.	.
=65	=65	=65	=65	=65	=65
1Gm	G:5	4r	.	.	.
.	.	8r	.	.	.
.	.	16g	Do	.	.
.	.	16f	your	.	.
.	.	8g	fan-	(L	.
.	.	16f	-cy	l)	.
.	.	8a	danc-	(L	.
.	.	16f	-es.	l)	.
.	.	8g	_	.	.
=66	=66	=66	=66	=66	=66
4Am	A:5	4r	.	.	.
4Gm	G:1	16cc	You	.	.
.	.	8.cc	can't	.	.
4F#m	F#:1	4g	stop.	M	.
4Em	E:1	16~a	You	.	.
.	.	8.~f	just	.	.
=67	=67	=67	=67	=67	=67
*>Letter>D	*>Letter>D	*>Letter>D	*>Letter>D	*>Letter>D	*>Letter>D
*>Label>Chorus	*>Label>Chorus	*>Label>Chorus	*>Label>Chorus	*>Label>Chorus	*>Label>Chorus
1Dm	D:min	4c	Stroke	.	newline
.	.	4d	me.	.	.
.	.	8f	Stroke	.	.
.	.	8d	me.	.	.
.	.	4r	.	.	.
=68	=68	=68	=68	=68	=68
1Dm	D:min	8~d	Stroke!.	.	.
.	.	8r	.	.	.
.	.	4r	.	.	.
.	.	8~d	Stroke!.	.	.
.	.	8r	.	.	.
.	.	4r	.	.	.
=69	=69	=69	=69	=69	=69
1Dm	D:min	4c	Stroke	.	.
.	.	4d	me.	.	.
.	.	8f	Stroke	.	.
.	.	8d	me.	.	.
.	.	4r	.	.	.
=70	=70	=70	=70	=70	=70
1Dm	D:min	8~d	Stroke!.	.	.
.	.	8r	.	.	.
.	.	4r	.	.	.
.	.	8~d	Stroke!.	.	.
.	.	8r	.	.	.
.	.	4r	.	.	.
=71	=71	=71	=71	=71	=71
1Dm	D:min	4c	Stroke	.	newline
.	.	4d	me.	.	.
.	.	8f	Stroke	.	.
.	.	8d	me.	.	.
.	.	4r	.	.	.
=72	=72	=72	=72	=72	=72
1Dm	D:min	8~d	Stroke!.	.	.
.	.	8r	.	.	.
.	.	4r	.	.	.
.	.	8~d	Stroke!.	.	.
.	.	8r	.	.	.
.	.	4r	.	.	.
=73	=73	=73	=73	=73	=73
1Dm	D:min	4c	Stroke	.	.
.	.	4d	me.	.	.
.	.	8f	Stroke	.	.
.	.	8d	me.	.	.
.	.	4r	.	.	.
=74	=74	=74	=74	=74	=74
1Dm	D:min	8~d	Stroke!.	.	.
.	.	8r	.	.	.
.	.	16~a	Do	.	.
.	.	8.~f	it!.	.	.
.	.	2r	.	.	.
=75	=75	=75	=75	=75	=75
*>Letter>D	*>Letter>D	*>Letter>D	*>Letter>D	*>Letter>D	*>Letter>D
*>Label>Chorus	*>Label>Chorus	*>Label>Chorus	*>Label>Chorus	*>Label>Chorus	*>Label>Chorus
4CM	C:maj	4c	Stroke	.	newline
2.Dm	D:min	4d	me.	.	.
.	.	8f	Stroke	.	.
.	.	8d	me.	.	.
.	.	4r	.	.	.
=76	=76	=76	=76	=76	=76
2Dm	D:min	8~d	Stroke!.	.	.
.	.	8r	.	.	.
.	.	4r	.	.	.
4Gm	G:5/4	2r	.	.	.
4Gm	G:5	.	.	.	.
=77	=77	=77	=77	=77	=77
4CM	C:maj	4c	Stroke	.	.
2.Dm	D:min	4d	me.	.	.
.	.	8f	Stroke	.	.
.	.	8d	me.	.	.
.	.	16~a	Keep	.	.
.	.	8.~f	on!.	.	.
=78	=78	=78	=78	=78	=78
2Dm	D:min	8~d	Stroke!.	.	.
.	.	8r	.	.	.
.	.	4r	.	.	.
4Gm	G:5	2r	.	.	.
4FM	F:5	.	.	.	.
=79	=79	=79	=79	=79	=79
4CM	C:maj	4c	Stroke	.	newline
2.Dm	D:min	4d	me.	.	.
.	.	8f	Stroke	.	.
.	.	8d	me.	.	.
.	.	16g#	Hang	.	.
.	.	16a	_	.	.
.	.	16a	on	.	.
.	.	16a	a	.	.
=80	=80	=80	=80	=80	=80
2Dm	D:min	8~d	Stroke!.	.	.
.	.	8r	.	.	.
.	.	4r	.	.	.
4Gm	G:5/4	2r	.	.	.
4Gm	G:5	.	.	.	.
=81	=81	=81	=81	=81	=81
4CM	C:maj	4c	Stroke	.	.
2.Dm	D:min	4d	me.	.	.
.	.	8f	Stroke	.	.
.	.	8d	me.	.	.
.	.	8r	.	.	.
.	.	16r	.	.	.
.	.	16g#	Say	.	.
=82	=82	=82	=82	=82	=82
2Dm	D:min	8a	_	.	.
.	.	16g	you're	.	.
.	.	16f	a	.	.
.	.	16g	win-	.	.
.	.	16f	-ner;	.	.
.	.	16d	but	.	.
.	.	[16f	man	.	.
4Gm	G:5	16f]	_	.	.
.	.	16d	you're	.	.
.	.	16c	just	.	.
.	.	16A	a	.	.
4FM	F:5	16c	sin-	.	.
.	.	16A	-ner	.	.
.	.	8F	now.	.	.
*-	*-	*-	*-	*-	*-
!!!BillboardChartDate: 1981/05/16
!!!BillboardPeak: 17
!!!BillboardWeeksOnChart: 20
!!!COC: Billy Squier
!!!EMD: Original transcription was in augmentation. Also, the wrong number of measures at the beginning. I've fixed these things.
!!!EMD: The funky groove part is marked as alternating Dm <-> C every beat...but I'm not sure about that.
!!!ENC: Nathaniel Condit-Schultz
!!!EST: Awating manual error checking and editing.
!!!OTL: The Stroke
!!!RDF**chordsym: original McGill chord annotation + (implied pitch class set, with bass pitch in first position)
!!!RDF**harmony: **recip + pitch class of root + harmonic quality
!!!RDF**leadinstrument: original McGill primary instrumentation annotation
!!!RDF**phrase: newline = linebreak in original McGill transcription
!!!RDF**timestamp: McGill audio timestamp in seconds
!!!RDT: 2017/01/12/
!!!SampleActualRank: 84
!!!SampleID#: 0963
!!!SampleTargetRank: 82
!!!MBID: abb56a3f-5e57-4a3e-b945-25671520d90a
